X: 1
T: Devil's Dream, The
M: 4/4
L: 1/8
R: reel
K: Edor
BE ~E2 BcdB|AD ~D2 DFAd|BE ~E2 B3f|1 gfed Beed:|2 gfed Beef||
gebe gbeg|gfee BBef|gebe gbef|gfed Beef|
gebe gbeg|gfee Bdef|g2g2 fgaf|gfed Beef||
